; generated by PrusaSlicer 2.6.1+win64 on 2023-10-31 at 06:51:04 UTC

; 

; external perimeters extrusion width = 0.60mm
; perimeters extrusion width = 0.50mm
; infill extrusion width = 0.50mm
; solid infill extrusion width = 0.50mm
; top infill extrusion width = 0.45mm
; first layer extrusion width = 0.42mm

; external perimeters extrusion width = 0.60mm
; perimeters extrusion width = 0.50mm
; infill extrusion width = 0.50mm
; solid infill extrusion width = 0.50mm
; top infill extrusion width = 0.45mm
; first layer extrusion width = 0.42mm

; external perimeters extrusion width = 0.60mm
; perimeters extrusion width = 0.50mm
; infill extrusion width = 0.50mm
; solid infill extrusion width = 0.50mm
; top infill extrusion width = 0.45mm
; first layer extrusion width = 0.42mm

; external perimeters extrusion width = 0.60mm
; perimeters extrusion width = 0.50mm
; infill extrusion width = 0.50mm
; solid infill extrusion width = 0.50mm
; top infill extrusion width = 0.45mm
; first layer extrusion width = 0.42mm

M73 P0 R76
M73 Q0 S77
M201 X1000 Y1000 Z200 E5000 ; sets maximum accelerations, mm/sec^2
M203 X200 Y200 Z12 E120 ; sets maximum feedrates, mm / sec
M204 S1250 T1250 ; sets acceleration (S) and retract acceleration (R), mm/sec^2
M205 X8.00 Y8.00 Z0.40 E4.50 ; sets the jerk limits, mm/sec
M205 S0 T0 ; sets the minimum extruding and travel feed rate, mm/sec
;TYPE:Custom
M862.3 P "MK3S" ; printer model check
M862.1 P0.4 ; nozzle diameter check
M115 U3.10.1 ; tell printer latest fw version
G90 ; use absolute coordinates
M83 ; extruder relative mode
M104 S200 ; set extruder temp
M140 S70 ; set bed temp
M190 S70 ; wait for bed temp
M109 S200 ; wait for extruder temp
G28 W ; home all without mesh bed level
G80 ; mesh bed leveling
G1 Z0.2 F720
G1 Y-3 F1000 ; go outside print area
G92 E0
G1 X60 E9 F1000 ; intro line
G1 X100 E12.5 F1000 ; intro line
G92 E0
M221 S95

; Don't change E values below. Excessive value can damage the printer.

M907 E538 ; set extruder motor current
G21 ; set units to millimeters
G90 ; use absolute coordinates
M83 ; use relative distances for extrusion
M900 K0.05 ; Filament gcode LA 1.5
M900 K30 ; Filament gcode LA 1.0
M107
;LAYER_CHANGE
;Z:0.2
;HEIGHT:0.2
;BEFORE_LAYER_CHANGE
G92 E0.0
;0.2


G1 E-.8 F2100
G1 Z.4 F720
;AFTER_LAYER_CHANGE
;0.2
G1 X71.486 Y151.737 F10800
G1 Z.2 F720
G1 E.8 F2100
M204 S800
;TYPE:Skirt/Brim
;WIDTH:0.42
G1 F1200
G1 X71.751 Y151.626 E.00901
G1 X101.306 Y151.506 E.92668
G1 X127.076 Y151.506 E.808
G1 X187.411 Y151.669 E1.89177
G1 X187.677 Y151.78 E.00904
G1 X189.493 Y153.596 E.08052
G1 X189.603 Y153.862 E.00903
G1 X189.603 Y197.53 E1.36918
G1 X189.493 Y197.797 E.00905
G1 X187.677 Y199.613 E.08052
G1 X187.411 Y199.723 E.00903
G1 X131.669 Y199.779 E1.74775
G1 X71.752 Y199.68 E1.87866
G1 X71.486 Y199.57 E.00903
G1 X69.67 Y197.754 E.08052
G1 X69.56 Y197.487 E.00905
G1 X69.56 Y153.819 E1.36918
G1 X69.67 Y153.553 E.00903
G1 X71.444 Y151.779 E.07866
M204 S1000
;WIPE_START
G1 F8640
G1 X71.751 Y151.626 E-.0792
G1 X74.873 Y151.613 E-.7208
;WIPE_END
G1 Z.6 F720
G1 X71.983 Y152.771 F10800
G1 Z.2 F720
G1 E.8 F2100
M204 S800
G1 F1200
G1 X72.765 Y152.552 E.02546
G1 X96.511 Y152.556 E.74454
G1 X97.036 Y152.667 E.01682
G1 X97.563 Y152.907 E.01816
G1 X98.171 Y153.428 E.02511
G1 X98.576 Y154.059 E.02351
G1 X98.788 Y154.831 E.0251
G1 X98.788 Y196.478 E1.30581
G1 X98.481 Y197.453 E.03205
G1 X98.28 Y197.743 E.01106
G1 X97.696 Y198.315 E.02563
G1 X97.271 Y198.546 E.01517
G1 X96.509 Y198.754 E.02477
G1 X72.762 Y198.754 E.74457
G1 X71.787 Y198.447 E.03205
G1 X71.497 Y198.246 E.01106
G1 X70.925 Y197.662 E.02563
G1 X70.694 Y197.238 E.01514
G1 X70.486 Y196.475 E.0248
G1 X70.486 Y154.829 E1.30578
G1 X70.793 Y153.853 E.03208
M73 Q0 S76
G1 X70.994 Y153.563 E.01106
G1 X71.578 Y152.992 E.02561
G1 X71.931 Y152.8 E.0126
M204 S1000
G1 X72.112 Y153.126 F10800
M204 S800
G1 F1200
G1 X72.792 Y152.929 E.0222
G1 X96.49 Y152.933 E.74303
G1 X96.933 Y153.031 E.01423
G1 X97.379 Y153.237 E.0154
G1 X97.903 Y153.694 E.0218
G1 X98.221 Y154.189 E.01845
G1 X98.411 Y154.858 E.02181
G1 X98.411 Y196.449 E1.30406
G1 X98.154 Y197.265 E.02682
G1 X98 Y197.49 E.00855
G1 X97.488 Y197.999 E.02264
G1 X97.146 Y198.189 E.01227
G1 X96.482 Y198.377 E.02164
G1 X72.791 Y198.377 E.74281
G1 X71.975 Y198.12 E.02682
G1 X71.75 Y197.966 E.00855
G1 X71.241 Y197.455 E.02261
G1 X71.051 Y197.112 E.01229
G1 X70.863 Y196.448 E.02164
G1 X70.863 Y154.858 E1.30403
G1 X71.12 Y154.042 E.02682
G1 X71.273 Y153.817 E.00853
G1 X71.785 Y153.308 E.02264
G1 X72.059 Y153.155 E.00984
M204 S1000
G1 X72.245 Y153.479 F10800
M204 S800
G1 F1200
G1 X72.82 Y153.306 E.01883
G1 X96.468 Y153.31 E.74147
G1 X96.827 Y153.393 E.01155
G1 X97.192 Y153.566 E.01266
G1 X97.632 Y153.958 E.01848
G1 X97.868 Y154.323 E.01363
G1 X98.034 Y154.886 E.0184
G1 X98.034 Y196.42 E1.30227
G1 X97.825 Y197.078 E.02165
G1 X97.718 Y197.239 E.00606
G1 X97.277 Y197.686 E.01969
G1 X97.016 Y197.835 E.00942
G1 X96.454 Y198 E.01836
G1 X72.82 Y198 E.74103
G1 X72.162 Y197.791 E.02165
G1 X72.001 Y197.684 E.00606
G1 X71.554 Y197.244 E.01967
G1 X71.405 Y196.983 E.00942
G1 X71.24 Y196.42 E.01839
G1 X71.24 Y154.887 E1.30224
G1 X71.449 Y154.228 E.02168
G1 X71.556 Y154.067 E.00606
G1 X71.996 Y153.621 E.01964
G1 X72.193 Y153.509 E.00711
M204 S1000
G1 X72.383 Y153.83 F10800
M204 S800
G1 F1200
G1 X72.849 Y153.683 E.01532
G1 X96.446 Y153.687 E.73987
G1 X96.684 Y153.742 E.00766
M73 P1 R76
M73 Q1 S76
G1 X97.005 Y153.894 E.01114
G1 X97.359 Y154.219 E.01507
G1 X97.516 Y154.46 E.00902
G1 X97.657 Y154.916 E.01497
G1 X97.657 Y196.39 E1.30039
G1 X97.494 Y196.896 E.01667
G1 X97.432 Y196.992 E.00358
G1 X97.062 Y197.375 E.0167
G1 X96.881 Y197.482 E.00659
G1 X96.424 Y197.623 E.015
G1 X72.85 Y197.623 E.73915
G1 X72.344 Y197.461 E.01666
G1 X72.248 Y197.399 E.00358
G1 X71.865 Y197.028 E.01672
G1 X71.758 Y196.848 E.00657
G1 X71.617 Y196.391 E.015
G1 X71.617 Y154.917 E1.30039
G1 X71.779 Y154.41 E.01669
G1 X71.841 Y154.314 E.00358
G1 X72.212 Y153.931 E.01672
G1 X72.331 Y153.861 E.00433
M204 S1000
G1 X72.528 Y154.178 F10800
M204 S800
G1 F1200
G1 X72.881 Y154.061 E.01166
G1 X96.424 Y154.064 E.73817
G1 X96.541 Y154.092 E.00377
G1 X96.815 Y154.221 E.0095
G1 X97.083 Y154.476 E.0116
G1 X97.166 Y154.603 E.00476
G1 X97.279 Y154.947 E.01135
G1 X97.279 Y196.359 E1.29844
G1 X97.142 Y196.75 E.01299
M73 P1 R75
G1 X96.84 Y197.07 E.0138
G1 X96.739 Y197.132 E.00372
G1 X96.393 Y197.246 E.01142
G1 X72.881 Y197.246 E.7372
G1 X72.49 Y197.109 E.01299
G1 X72.17 Y196.806 E.01382
G1 X72.108 Y196.706 E.00369
G1 X71.994 Y196.359 E.01145
G1 X71.994 Y154.947 E1.29844
G1 X72.131 Y154.556 E.01299
G1 X72.477 Y154.21 E.01534
M204 S1000
G1 X72.685 Y154.521 F10800
M204 S800
G1 F1200
G1 X72.916 Y154.438 E.0077
G1 X96.372 Y154.438 E.73545
G1 X96.622 Y154.547 E.00855
G1 X96.821 Y154.755 E.00903
G1 X96.902 Y154.982 E.00756
G1 X96.902 Y196.324 E1.29625
G1 X96.826 Y196.537 E.00709
G1 X96.585 Y196.787 E.01089
G1 X96.358 Y196.869 E.00757
G1 X72.916 Y196.869 E.73501
G1 X72.703 Y196.793 E.00709
G1 X72.453 Y196.551 E.01091
G1 X72.371 Y196.324 E.00757
G1 X72.371 Y154.982 E1.29625
G1 X72.447 Y154.769 E.00709
G1 X72.64 Y154.561 E.0089
M204 S1000
G1 X72.889 Y154.843 F10800
M204 S800
G1 F1200
G1 X72.958 Y154.815 E.00233
G1 X96.316 Y154.815 E.73237
G1 X96.385 Y154.843 E.00233
G1 X96.497 Y154.955 E.00497
G1 X96.525 Y155.024 E.00233
G1 X96.525 Y196.282 E1.29362
G1 X96.497 Y196.351 E.00233
G1 X96.385 Y196.463 E.00497
G1 X96.316 Y196.492 E.00235
G1 X72.958 Y196.492 E.73237
G1 X72.889 Y196.463 E.00235
G1 X72.777 Y196.351 E.00497
G1 X72.748 Y196.282 E.00235
G1 X72.748 Y155.024 E1.29362
G1 X72.777 Y154.955 E.00235
G1 X72.846 Y154.886 E.00306
M204 S1000
;WIPE_START
G1 F8640
G1 X72.958 Y154.815 E-.03062
G1 X76.29 Y154.815 E-.76938
;WIPE_END
G1 Z.6 F720
G1 X100.04 Y154.886 F10800
G1 Z.2 F720
G1 E.8 F2100
M204 S800
G1 F1200
G1 X100.04 Y154.709 E.00555
G1 X100.347 Y153.733 E.03208
G1 X100.549 Y153.443 E.01108
G1 X101.133 Y152.872 E.02561
G1 X101.557 Y152.641 E.01514
G1 X102.32 Y152.432 E.0248
G1 X126.066 Y152.436 E.74454
G1 X126.59 Y152.547 E.01679
G1 X127.118 Y152.787 E.01819
G1 X127.726 Y153.308 E.02511
G1 X128.131 Y153.939 E.02351
G1 X128.342 Y154.711 E.02509
G1 X128.342 Y196.357 E1.30578
G1 X128.036 Y197.333 E.03207
G1 X127.834 Y197.623 E.01108
G1 X127.25 Y198.195 E.02563
G1 X126.826 Y198.425 E.01512
G1 X126.063 Y198.634 E.0248
G1 X102.317 Y198.634 E.74454
G1 X101.341 Y198.327 E.03208
G1 X101.051 Y198.126 E.01106
G1 X100.48 Y197.542 E.02561
G1 X100.249 Y197.117 E.01517
G1 X100.04 Y196.355 E.02477
G1 X100.04 Y154.946 E1.29835
M204 S1000
G1 X100.417 Y154.946 F10800
M204 S800
G1 F1200
G1 X100.417 Y154.738 E.00652
G1 X100.675 Y153.922 E.02683
G1 X100.828 Y153.697 E.00853
G1 X101.34 Y153.187 E.02266
G1 X101.682 Y152.997 E.01227
G1 X102.346 Y152.809 E.02164
G1 X126.045 Y152.813 E.74307
G1 X126.488 Y152.911 E.01423
G1 X126.934 Y153.117 E.0154
G1 X127.457 Y153.574 E.02178
G1 X127.776 Y154.069 E.01846
G1 X127.965 Y154.738 E.0218
G1 X127.965 Y196.329 E1.30406
G1 X127.708 Y197.144 E.02679
G1 X127.555 Y197.37 E.00856
G1 X127.043 Y197.879 E.02264
G1 X126.7 Y198.069 E.01229
G1 X126.037 Y198.257 E.02161
G1 X102.346 Y198.257 E.74281
G1 X101.53 Y198 E.02682
G1 X101.305 Y197.846 E.00855
G1 X100.796 Y197.335 E.02261
G1 X100.605 Y196.992 E.01231
G1 X100.417 Y196.328 E.02164
G1 X100.417 Y155.006 E1.29562
M204 S1000
G1 X100.795 Y155.006 F10800
M204 S800
G1 F1200
G1 X100.795 Y154.767 E.00749
G1 X101.003 Y154.108 E.02167
G1 X101.11 Y153.947 E.00606
G1 X101.551 Y153.501 E.01967
G1 X101.812 Y153.352 E.00942
G1 X102.374 Y153.186 E.01837
G1 X126.022 Y153.19 E.74147
G1 X126.382 Y153.273 E.01158
G1 X126.747 Y153.445 E.01265
G1 X127.187 Y153.838 E.0185
G1 X127.422 Y154.203 E.01361
G1 X127.588 Y154.766 E.0184
G1 X127.588 Y196.299 E1.30224
G1 X127.379 Y196.958 E.02168
M73 Q1 S75
G1 X127.272 Y197.119 E.00606
G1 X126.832 Y197.565 E.01964
G1 X126.571 Y197.715 E.00944
G1 X126.009 Y197.88 E.01836
G1 X102.375 Y197.88 E.74103
G1 X101.716 Y197.671 E.02168
M73 P2 R75
M73 Q2 S75
G1 X101.556 Y197.564 E.00604
G1 X101.109 Y197.123 E.01969
G1 X100.96 Y196.863 E.0094
G1 X100.795 Y196.3 E.01839
G1 X100.795 Y155.066 E1.29286
M204 S1000
G1 X101.172 Y155.066 F10800
M204 S800
G1 F1200
G1 X101.172 Y154.796 E.00847
G1 X101.334 Y154.29 E.01666
G1 X101.396 Y154.194 E.00358
G1 X101.767 Y153.811 E.01672
G1 X101.947 Y153.704 E.00657
G1 X102.404 Y153.563 E.015
G1 X126.001 Y153.567 E.73987
G1 X126.239 Y153.622 E.00766
G1 X126.559 Y153.774 E.01111
G1 X126.914 Y154.098 E.01507
G1 X127.071 Y154.34 E.00904
G1 X127.211 Y154.795 E.01493
G1 X127.211 Y196.27 E1.30042
G1 X127.049 Y196.776 E.01666
G1 X126.987 Y196.872 E.00358
G1 X126.616 Y197.255 E.01672
G1 X126.436 Y197.362 E.00657
G1 X125.979 Y197.503 E.015
G1 X102.405 Y197.503 E.73915
G1 X101.899 Y197.341 E.01666
G1 X101.803 Y197.279 E.00358
G1 X101.419 Y196.908 E.01674
G1 X101.313 Y196.728 E.00655
G1 X101.172 Y196.271 E.015
G1 X101.172 Y155.126 E1.29007
M204 S1000
G1 X101.549 Y155.126 F10800
M204 S800
G1 F1200
G1 X101.549 Y154.827 E.00937
G1 X101.686 Y154.436 E.01299
G1 X101.988 Y154.117 E.01377
G1 X102.089 Y154.054 E.00373
G1 X102.435 Y153.94 E.01142
G1 X125.978 Y153.944 E.73817
G1 X126.095 Y153.972 E.00377
G1 X126.369 Y154.101 E.0095
G1 X126.638 Y154.356 E.01162
G1 X126.721 Y154.483 E.00476
G1 X126.834 Y154.827 E.01135
G1 X126.834 Y196.239 E1.29844
G1 X126.697 Y196.63 E.01299
G1 X126.395 Y196.95 E.0138
G1 X126.294 Y197.012 E.00372
G1 X125.947 Y197.126 E.01145
G1 X102.436 Y197.126 E.73717
G1 X102.044 Y196.989 E.01302
G1 X101.725 Y196.686 E.01379
G1 X101.662 Y196.585 E.00373
G1 X101.549 Y196.239 E.01141
G1 X101.549 Y155.186 E1.28719
M204 S1000
G1 X101.926 Y155.186 F10800
M204 S800
G1 F1200
G1 X101.926 Y154.862 E.01016
G1 X102.002 Y154.649 E.00709
G1 X102.219 Y154.415 E.01001
G1 X102.471 Y154.317 E.00848
G1 X125.926 Y154.317 E.73542
G1 X126.177 Y154.427 E.00859
G1 X126.376 Y154.635 E.00903
G1 X126.457 Y154.862 E.00756
G1 X126.457 Y196.204 E1.29625
G1 X126.381 Y196.417 E.00709
G1 X126.14 Y196.667 E.01089
G1 X125.912 Y196.749 E.0076
G1 X102.471 Y196.749 E.73498
G1 X102.258 Y196.672 E.0071
G1 X102.007 Y196.431 E.01091
G1 X101.926 Y196.204 E.00756
G1 X101.926 Y155.246 E1.28421
M204 S1000
G1 X102.303 Y155.246 F10800
M204 S800
M73 P2 R74
G1 F1200
G1 X102.303 Y154.904 E.01072
G1 X102.332 Y154.835 E.00235
G1 X102.443 Y154.723 E.00494
G1 X102.512 Y154.695 E.00233
G1 X125.87 Y154.695 E.73237
G1 X125.94 Y154.723 E.00236
G1 X126.051 Y154.835 E.00494
G1 X126.08 Y154.904 E.00235
G1 X126.08 Y196.162 E1.29362
G1 X126.051 Y196.231 E.00235
G1 X125.94 Y196.343 E.00494
G1 X125.87 Y196.372 E.00238
G1 X102.512 Y196.372 E.73237
G1 X102.443 Y196.343 E.00235
G1 X102.332 Y196.231 E.00494
G1 X102.303 Y196.162 E.00235
G1 X102.303 Y155.306 E1.28101
M204 S1000
;WIPE_START
G1 F8640
G1 X102.303 Y154.904 E-.09282
G1 X102.332 Y154.835 E-.01728
G1 X102.443 Y154.723 E-.03641
G1 X102.512 Y154.695 E-.01719
G1 X105.268 Y154.695 E-.6363
;WIPE_END
G1 Z.6 F720
G1 X130.403 Y155.306 F10800
G1 Z.2 F720
G1 E.8 F2100
M204 S800
G1 F1200
G1 X130.403 Y154.928 E.01185
G1 X130.71 Y153.952 E.03208
G1 X130.911 Y153.662 E.01106
G1 X131.495 Y153.091 E.02561
G1 X131.919 Y152.86 E.01514
G1 X132.682 Y152.651 E.0248
G1 X156.428 Y152.655 E.74454
G1 X156.953 Y152.766 E.01682
G1 X157.48 Y153.006 E.01816
G1 X158.088 Y153.527 E.02511
G1 X158.493 Y154.158 E.02351
G1 X158.705 Y154.93 E.0251
G1 X158.705 Y196.576 E1.30578
G1 X158.398 Y197.552 E.03208
G1 X158.197 Y197.842 E.01106
G1 X157.612 Y198.414 E.02565
G1 X157.188 Y198.644 E.01512
G1 X156.426 Y198.853 E.02477
G1 X132.679 Y198.853 E.74457
G1 X131.704 Y198.546 E.03205
G1 X131.414 Y198.345 E.01106
G1 X130.842 Y197.761 E.02563
G1 X130.611 Y197.336 E.01517
G1 X130.403 Y196.574 E.02477
G1 X130.403 Y155.366 E1.29205
M204 S1000
G1 X130.78 Y155.366 F10800
M204 S800
G1 F1200
G1 X130.78 Y154.957 E.01282
G1 X131.037 Y154.141 E.02682
G1 X131.19 Y153.916 E.00853
G1 X131.702 Y153.406 E.02266
G1 X132.045 Y153.216 E.01229
G1 X132.709 Y153.028 E.02164
G1 X156.407 Y153.032 E.74303
G1 X156.85 Y153.129 E.01422
G1 X157.296 Y153.336 E.01542
G1 X157.82 Y153.793 E.0218
G1 X158.138 Y154.288 E.01845
G1 X158.328 Y154.957 E.02181
G1 X158.328 Y196.547 E1.30403
G1 X158.071 Y197.363 E.02682
G1 X157.917 Y197.589 E.00857
G1 X157.405 Y198.098 E.02264
G1 X157.063 Y198.288 E.01227
G1 X156.399 Y198.476 E.02164
G1 X132.708 Y198.476 E.74281
G1 X131.892 Y198.219 E.02682
G1 X131.667 Y198.065 E.00855
G1 X131.158 Y197.553 E.02264
G1 X130.968 Y197.211 E.01227
G1 X130.78 Y196.547 E.02164
G1 X130.78 Y155.426 E1.28932
M204 S1000
G1 X131.157 Y155.426 F10800
M204 S800
G1 F1200
G1 X131.157 Y154.986 E.0138
G1 X131.366 Y154.327 E.02168
G1 X131.473 Y154.166 E.00606
G1 X131.913 Y153.72 E.01964
G1 X132.174 Y153.571 E.00942
G1 X132.737 Y153.405 E.0184
G1 X156.385 Y153.409 E.74147
G1 X156.744 Y153.492 E.01155
G1 X157.109 Y153.664 E.01265
G1 X157.549 Y154.056 E.01848
G1 X157.785 Y154.422 E.01365
G1 X157.951 Y154.985 E.0184
G1 X157.951 Y196.518 E1.30224
G1 X157.742 Y197.177 E.02168
M73 P3 R74
M73 Q3 S75
G1 X157.635 Y197.338 E.00606
G1 X157.194 Y197.784 E.01967
G1 X156.933 Y197.933 E.00942
G1 X156.371 Y198.099 E.01837
G1 X132.737 Y198.099 E.74103
G1 X132.079 Y197.89 E.02165
G1 X131.918 Y197.783 E.00606
G1 X131.471 Y197.342 E.01969
G1 X131.322 Y197.082 E.0094
G1 X131.157 Y196.519 E.01839
G1 X131.157 Y155.486 E1.28656
M204 S1000
G1 X131.534 Y155.486 F10800
M204 S800
G1 F1200
G1 X131.534 Y155.015 E.01477
G1 X131.696 Y154.509 E.01666
G1 X131.758 Y154.413 E.00358
G1 X132.129 Y154.03 E.01672
G1 X132.309 Y153.923 E.00657
G1 X132.766 Y153.782 E.015
G1 X156.363 Y153.786 E.73987
G1 X156.601 Y153.841 E.00766
G1 X156.922 Y153.993 E.01114
G1 X157.276 Y154.317 E.01505
G1 X157.433 Y154.559 E.00904
G1 X157.573 Y155.014 E.01493
G1 X157.573 Y196.489 E1.30042
G1 X157.411 Y196.995 E.01666
G1 X157.349 Y197.091 E.00358
G1 X156.978 Y197.474 E.01672
G1 X156.798 Y197.581 E.00657
G1 X156.341 Y197.722 E.015
G1 X132.767 Y197.722 E.73915
G1 X132.261 Y197.56 E.01666
G1 X132.165 Y197.498 E.00358
G1 X131.782 Y197.127 E.01672
G1 X131.675 Y196.947 E.00657
G1 X131.534 Y196.49 E.015
